icon/lg/fomo.svg

<?xml version="1.0" encoding="UTF-8"?>
<svg viewBox="0 0 512 138" version="1.1" xmlns="http://www.w3.org/2000/svg" preserveAspectRatio="xMidYMid" height="1em" width="1em">
  <g>
    <path d="M455.045678,4.21624339 L454.931189,4.21624339 C445.982392,4.05118099 437.113068,5.92161238 428.993006,9.68628669 C424.275939,6.26045074 418.627386,4.35245568 412.799133,4.21624339 C396.172747,4.21624339 380.55132,12.0905615 371.328573,31.8208805 L371.328573,8.64316216 C371.328573,6.19824242 369.346574,4.21624339 366.901654,4.21624339 L359.370805,4.21624339 C342.718975,4.21624339 328.153395,13.6806904 321.016897,31.9480908 L321.016897,5.60283576 C321.016897,5.23508859 320.87081,4.8824034 320.610772,4.62236688 C320.350737,4.36233039 319.998051,4.21624339 319.630304,4.21624339 L309.059126,4.21624339 C292.292807,4.21624339 277.040292,14.6220467 270.552567,32.3424426 L270.552567,5.83181431 C270.552785,5.39437454 270.375605,4.97554417 270.061531,4.67105968 C269.747456,4.36657522 269.323335,4.20246569 268.886112,4.21624339 L258.238609,4.21624339 C242.121062,4.21624339 221.741971,12.8283813 213.715,36.616709 C205.179188,17.1662529 188.272939,4.22896442 163.187066,4.22896442 L163.072576,4.22896442 C124.057174,4.22896442 105.980589,33.8435244 105.980589,70.7726772 C105.980589,113.540783 124.311595,137.329111 163.072576,137.329111 C200.904922,137.329111 220.164563,113.553504 220.164563,70.7726772 C220.164563,43.4733448 235.836873,30.5869404 245.733835,29.989052 C245.921288,29.9748635 246.106153,30.0395819 246.243824,30.1675922 C246.381496,30.2956023 246.45947,30.4752782 246.458934,30.6632667 L246.458934,131.286621 C246.458934,132.466927 247.415761,133.423754 248.596067,133.423754 L268.415433,133.423754 C269.59574,133.423754 270.552567,132.466927 270.552567,131.286621 L270.552567,104.038173 C270.552567,43.0408297 291.644037,31.7191123 296.236328,30.2561938 C296.440353,30.1855819 296.665999,30.2189789 296.840823,30.3456633 C297.015647,30.4723474 297.117648,30.6763756 297.11408,30.8922452 L297.11408,131.324784 C297.11408,132.505091 298.070906,133.461918 299.251213,133.461918 L318.892485,133.461918 C319.459287,133.461918 320.002875,133.236756 320.403666,132.835966 C320.804457,132.435176 321.029618,131.891587 321.029618,131.324784 L321.029618,104.038173 C321.029618,42.6464779 341.383266,31.5282968 346.586169,30.1798675 C346.78568,30.1283365 346.99781,30.1727226 347.159925,30.2999201 C347.32204,30.4271179 347.41562,30.6225971 347.413034,30.82864 L347.413034,131.324784 C347.413034,132.505091 348.369863,133.461918 349.550167,133.461918 L369.191439,133.461918 C369.758244,133.461918 370.301832,133.236756 370.70262,132.835966 C371.103411,132.435176 371.328573,131.891587 371.328573,131.324784 L371.328573,104.038173 C371.328573,42.3666151 391.542291,29.9636099 400.841365,29.9636099 C402.876575,29.9922374 404.881491,30.460919 406.718482,31.3374813 C400.726876,42.353894 397.813761,55.9653971 397.813761,70.7726772 C397.813761,113.540783 416.144765,137.329111 454.905746,137.329111 C492.738094,137.329111 511.999252,113.553504 511.999252,70.7726772 C512.137665,33.8308034 493.056118,4.21624339 455.045678,4.21624339 Z M163.174344,113.400852 C140.365536,113.400852 131.549862,94.3193054 131.549862,70.7726772 C131.549862,47.2260491 140.162,28.1699447 163.174344,28.1444518 C186.186689,28.1190606 194.798827,47.2260491 194.798827,70.7726772 C194.798827,94.3193054 185.995874,113.362689 163.174344,113.400852 Z M104.326855,0.603470608 C105.155974,-0.201156869 106.474458,-0.201156869 107.303577,0.603470608 L120.215423,13.528038 C120.62617,13.9416574 120.851351,14.5043403 120.840237,15.0871358 C120.827368,15.6699314 120.579232,16.2228753 120.151818,16.6192485 C109.542478,26.4398844 99.9889838,32.2279534 83.5279698,32.2279534 L51.9416499,32.2279534 C50.7613438,32.2279534 49.8045167,33.1847805 49.8045167,34.3650866 L49.8045167,60.4813631 C49.8045167,61.6616691 50.7613438,62.6184963 51.9416499,62.6184963 L88.4255668,62.6184963 C88.9923697,62.6184963 89.5359579,62.843658 89.936748,63.2444481 C90.3375383,63.6452383 90.5627,64.1888266 90.5627,64.7556295 L90.5627,84.2060859 C90.5627,85.386392 89.6058726,86.3432191 88.4255668,86.3432191 L51.9670921,86.3432191 C50.786786,86.3432191 49.8299589,87.3000462 49.8299589,88.4803523 L49.8299589,131.350226 C49.8299589,132.530532 48.8731318,133.48736 47.6928257,133.48736 L28.2423695,133.48736 C27.0620634,133.48736 26.1052363,132.530532 26.1052363,131.350226 L26.1052363,88.4803523 C26.1052363,87.9135492 25.8800745,87.3699609 25.4792844,86.9691709 C25.0784942,86.5683806 24.534906,86.3432191 23.968103,86.3432191 L2.13881395,86.3432191 C0.958507866,86.3432191 0.000512550062,85.386392 0.000512550062,84.2060859 L0.000512550062,64.7556295 C-0.0119612511,64.1844487 0.203672894,63.6315873 0.600439819,63.2204793 C0.997206769,62.8093715 1.54206667,62.5742511 2.11337188,62.5676122 L23.9426609,62.5676122 C25.122967,62.5676122 26.0797941,61.6107851 26.0797941,60.430479 L26.0797941,10.6912481 C26.0797941,9.51094205 27.0366212,8.55411493 28.2169273,8.55411493 L78.1851367,8.55411493 L79.2138074,8.54971571 C94.0782148,8.42082994 99.2146971,5.46686207 104.326855,0.603470608 L104.326855,0.603470608 Z M454.982073,28.1444518 C477.994419,28.1190606 486.606556,47.2260491 486.606556,70.7726772 C486.606556,94.3193054 477.803603,113.362689 454.982073,113.400852 C432.173264,113.400852 423.35759,94.3193054 423.35759,70.7726772 C423.35759,47.2260491 431.969729,28.1699447 454.982073,28.1444518 Z" fill="#EBA06D"/>
  </g>
</svg>

<svg width="512" height="138" xmlns="http://www.w3.org/2000/svg" preserveAspectRatio="xMidYMid"><path d="M455.046 4.216h-.115a59.076 59.076 0 0 0-25.938 5.47 28.699 28.699 0 0 0-16.194-5.47c-16.626 0-32.248 7.875-41.47 27.605V8.643a4.427 4.427 0 0 0-4.427-4.427h-7.531c-16.652 0-31.218 9.465-38.354 27.732V5.603a1.387 1.387 0 0 0-1.387-1.387h-10.57c-16.767 0-32.02 10.406-38.507 28.126V5.832a1.616 1.616 0 0 0-1.667-1.616H258.24c-16.118 0-36.497 8.612-44.524 32.4-8.536-19.45-25.442-32.387-50.528-32.387h-.114c-39.016 0-57.092 29.615-57.092 66.544 0 42.768 18.33 66.556 57.092 66.556 37.832 0 57.092-23.775 57.092-66.556 0-27.3 15.672-40.186 25.569-40.784a.674.674 0 0 1 .725.674v100.624c0 1.18.957 2.137 2.137 2.137h19.82c1.18 0 2.137-.957 2.137-2.137v-27.249c0-60.997 21.091-72.319 25.683-73.782a.661.661 0 0 1 .878.636v100.433c0 1.18.957 2.137 2.137 2.137h19.641a2.137 2.137 0 0 0 2.138-2.137v-27.287c0-61.392 20.353-72.51 25.556-73.858a.661.661 0 0 1 .827.649v100.496c0 1.18.957 2.137 2.137 2.137h19.641a2.137 2.137 0 0 0 2.138-2.137v-27.287c0-61.671 20.213-74.074 29.512-74.074 2.036.028 4.04.497 5.877 1.373-5.991 11.017-8.904 24.628-8.904 39.436 0 42.768 18.33 66.556 57.092 66.556 37.832 0 57.093-23.775 57.093-66.556.139-36.942-18.943-66.557-56.953-66.557ZM163.174 113.401c-22.808 0-31.624-19.082-31.624-42.628 0-23.547 8.612-42.603 31.624-42.629 23.013-.025 31.625 19.082 31.625 42.629 0 23.546-8.803 42.59-31.625 42.628ZM104.327.603a2.137 2.137 0 0 1 2.977 0l12.911 12.925c.411.414.636.976.625 1.56a2.154 2.154 0 0 1-.688 1.531c-10.61 9.82-20.163 15.609-36.624 15.609H51.942c-1.18 0-2.137.957-2.137 2.137v26.116c0 1.18.956 2.137 2.137 2.137h36.484a2.137 2.137 0 0 1 2.137 2.138v19.45c0 1.18-.957 2.137-2.137 2.137H51.967c-1.18 0-2.137.957-2.137 2.137v42.87c0 1.18-.957 2.137-2.137 2.137h-19.45a2.137 2.137 0 0 1-2.138-2.137V88.48a2.137 2.137 0 0 0-2.137-2.137H2.138a2.138 2.138 0 0 1-2.137-2.137v-19.45a2.143 2.143 0 0 1 2.112-2.188h21.83c1.18 0 2.137-.957 2.137-2.138V10.691c0-1.18.957-2.137 2.137-2.137h49.968l1.029-.004c14.864-.13 20-3.083 25.113-7.947Zm350.655 27.541c23.012-.025 31.625 19.082 31.625 42.629 0 23.546-8.803 42.59-31.625 42.628-22.809 0-31.624-19.082-31.624-42.628 0-23.547 8.612-42.603 31.624-42.629Z" fill="#EBA06D"/></svg>
